X: 1
T: Up Sligo
R: jig
M: 6/8
L: 1/8
K: Emin
|: EBB BAG | Fdd AFD | EBB EBB | AGF EFD |
EBB BAG | Fdd AB^c | ded BGB | AGF E2D :|
|: Bee ede | fef dBA | Bee Bee | fe^c d2A |
Bee ede | fef dBA | BdB GBd | AGF E2E :|


Tune 537	Setting 13489

